X: 0
T: Anachreon in Heaven  v.2
M: 3/4
K:Fmin
cc | c2 d2 e2 | e4 dc | B2 c2 d2 | d3 zd2 |
c3 B A2 | G3 zFG | A2 C2 ^D2 | E3 zE2 ||
A2 A2 AG | F2 F2 F2 | B2 dcBA | A2 HG2 EE |
A3 Bcd | He4 AB | c3 d B2 | HA6 |]
